X: 32336
T: Pinch Of Snuff, The
R: reel
M: 4/4
K: Dmixolydian
fage d2dB|AD (3FED EFGB|A3B cGcd|ed (3B^cd efge:|
f2df afdf|f2df efge|f2df afdf|eA (3B^cd efge|
f2df afdf|f2df efge|fa~a2 afdf|eA (3B^cd efge||

